X:1
T:Jesu, dulcis memoria
T:Jesu, Dulcis Memoria
T:Tomas Luis de Victoria
C:Victoria
%%score [ 1 2 3 4 ]
L:1/8
M:4/4
K:C
V:1 treble nm="S"
V:2 treble nm="A"
V:3 treble-8 transpose=-12 nm="T"
V:4 bass nm="B"
V:1
 A4 B4 | (A6 ^G2) | A2 c2 (B4 | A3) A ^G2 G2 | A4 A4 | G6 A2 | G6 G2 | (A3 B/c/ d2 c2 | %8
w: Je- su,|dul- *|cis me- mo-|* ri- a, dans|ve- ra,|ve- ra|cor- di|gau- * * * *|
 G3) G G2 (c2 | A2 d2 B2 c2 | B3) B c4 | z4 d2 d c | B4 c4 | (A2 G2 A2 d2 | B2) c2 B4 | A2 A2 A4 | %16
w: * di- a, gau-||* di- a:|sed su- per|mel et|om- * * *|* ni- a,|su- per mel|
 ^F2 G4 F2 | G2 B4 A2 | (B2 G2) ^F4 | (G2 A2 B2 c2) | B2 A4 ^G2 | A2 A2 A2 A2 | A2 A2 A4 |] %23
w: et om- ni-|a, e- jus|dul- * cis|prae- * * *|sen- * ti-|a, dul- cis prae-|sen- ti- a.|
V:2
 E8 | E6 E2 | E2 E2 E4- | E2 D2 E4 | (E F G2) F4 | E4 (E2 D2- | D2) D4 (G2- | G2 F4 E2 | D3) D E4 | %9
w: Je-|su, dul-|cis me- mo-|* ri- a,|dans * * ve-|ra cor- *|* di gau-||* di- a,|
 (F3 G/F/ E4- | E2) E2 E4 | z2 E2 A4 | G2 G4 E2 | (^F2 G4 =F2 | E3) E E2 G2- | G2 F2 E2 E2 | %16
w: gau- * * *|* di- a:|sed su-|per mel et|om- * *|* ni- a, su-|* per mel et|
 D6 D2 | D4 (E4 | ^D2) E4 D2 | E4 E4 | E6 E2 | E2 ^C2 D2 E2 | F2 (ED) E4 |] %23
w: om- ni-|a, e-|* jus dul-|cis prae-|sen- ti-|a, dul- cis prae-|sen- ti- * a.|
V:3
 c4 B4 | c4 B2 B2 | (c3 B/A/ ^G4 | A3) A B4 | z2 e4 (d2- | d2 cB c2) c2 | (c2 BA B2) B2 | %7
w: Je- su,|dul- cis me-|mo- * * *|* ri- a,|dans ve-|* * * * ra|cor- * * * di|
 (c3 d/c/ B2 c2- | c2) B2 c2 (c2- | c2 BA) ^G2 A2- | A2 ^G2 A4 | z2 A2 d4- | d2 d2 e2 c2- | %13
w: gau- * * * *|* di- a, cor-|* * * di gau-|* di- a:|sed su-|* per mel et|
 c2 (_B2 A3 =B/A/ | ^G2) A2 B2 (ed | ^c) (B/c/) d4 =c2- | c2 (_B2 A3) A | B2 (G2 c4) | B8 | %19
w: * om- * * *|* ni- a, su- *|* per- * mel et|* om- * ni-|a, e- *|jus|
 B2 c2 (^G2 A2) | (B2 c2 B3) B | ^c2 e2 f2 c2 | d2 (^cB) c4 |] %23
w: dul- cis prae- *|sen- * * ti-|a, dul- cis prae-|sen- ti- * a.|
V:4
 A,4 ^G,4 | A,4 E,4 | A,,4 E,4 | F,3 F, E,2 E,2 | ^C,4 D,4 | E,6 F,2 | G,6 E,2 | A,4 G,4- | %8
w: Je- su,|dul- cis|me- *|mo- ri- a, dans|ve- ra-|cor- di|gau- di-|a, ve-|
 G,2 G,,2 C,4 | D,4 E,4- | E,2 E,,2 A,,4 | A,2 A, G, ^F,4 | G,4 C,4 | D,8 | E,8 | A,,8 | D,6 D,2 | %17
w: * ra cor-|di gau-|* di- a:|sed su- per mel|et om-|ni-|a,|et|om- ni-|
 G,,4 z4 | z4 B,,4 | E,6 E,2 | E,6 E,2 | A,,8 | A,,4 A,,4 |] %23
w: a,|e-|jus dul-|cis prae-|sen-|ti- a.|

